icon/hi/clipboard-copy.svg

<svg viewBox="0 0 20 20" fill="none" xmlns="http://www.w3.org/2000/svg" height="1em" width="1em">
  <path d="M8 2C7.44772 2 7 2.44772 7 3C7 3.55228 7.44772 4 8 4H10C10.5523 4 11 3.55228 11 3C11 2.44772 10.5523 2 10 2H8Z" fill="#4A5568"/>
  <path d="M3 5C3 3.89543 3.89543 3 5 3C5 4.65685 6.34315 6 8 6H10C11.6569 6 13 4.65685 13 3C14.1046 3 15 3.89543 15 5V11H10.4142L11.7071 9.70711C12.0976 9.31658 12.0976 8.68342 11.7071 8.29289C11.3166 7.90237 10.6834 7.90237 10.2929 8.29289L7.29289 11.2929C6.90237 11.6834 6.90237 12.3166 7.29289 12.7071L10.2929 15.7071C10.6834 16.0976 11.3166 16.0976 11.7071 15.7071C12.0976 15.3166 12.0976 14.6834 11.7071 14.2929L10.4142 13H15V16C15 17.1046 14.1046 18 13 18H5C3.89543 18 3 17.1046 3 16V5Z" fill="#4A5568"/>
  <path d="M15 11H17C17.5523 11 18 11.4477 18 12C18 12.5523 17.5523 13 17 13H15V11Z" fill="#4A5568"/>
</svg>

<svg width="20" height="20" fill="none" xmlns="http://www.w3.org/2000/svg"><path d="M8 2a1 1 0 0 0 0 2h2a1 1 0 1 0 0-2H8Z" fill="#4A5568"/><path d="M3 5a2 2 0 0 1 2-2 3 3 0 0 0 3 3h2a3 3 0 0 0 3-3 2 2 0 0 1 2 2v6h-4.586l1.293-1.293a1 1 0 0 0-1.414-1.414l-3 3a1 1 0 0 0 0 1.414l3 3a1 1 0 0 0 1.414-1.414L10.414 13H15v3a2 2 0 0 1-2 2H5a2 2 0 0 1-2-2V5ZM15 11h2a1 1 0 1 1 0 2h-2v-2Z" fill="#4A5568"/></svg>
